symbolic/24x24/apps/tw.ddnet.ddnet.svg

<svg xmlns="http://www.w3.org/2000/svg" width="24" height="24" version="1.1">
 <path style="opacity:0.2" d="m 3.000001,20.5325 c 0.00175,1.4675 0.3535765,1.956847 4.825685,1.956846 1.2713615,0 2.818968,0.115194 3.633734,-0.411992 0.76933,-0.497788 0.491851,-1.228334 0.491851,-1.971806 C 11.951272,18.574692 10.497539,17.5 8.0257145,17.5 5.5538895,17.5 2.9981555,19 3.000001,20.5325 Z"/>
 <path style="fill:#9d7730" d="m 3.000001,20.0325 c 0.00175,1.4675 0.3535765,1.956847 4.825685,1.956846 1.2713615,0 2.818968,0.115194 3.633734,-0.411992 0.76933,-0.497788 0.491851,-1.228334 0.491851,-1.971806 C 11.951272,18.074692 10.497539,17 8.0257145,17 5.5538895,17 2.9981555,18.5 3.000001,20.0325 Z"/>
 <path style="opacity:0.2" d="m 12,2.5 c -5.5228475,0 -10,4.4771525 -10,10 0,1.988428 0.5804871,3.841255 1.5810547,5.398437 0.1111565,0.172993 0.2293561,0.336163 0.3535156,0.490235 8.8e-4,0.0011 0.00205,0.0019 0.00293,0.003 A 10,10 0 0 0 12,22.5 10,10 0 0 0 22,12.5 10,10 0 0 0 21.65625,9.966797 C 21.646175,9.899562 21.64042,9.8313115 21.62207,9.7666015 20.432884,5.5724885 16.575119,2.5 12,2.5 Z"/>
 <path style="fill:#ffa500" d="m 12,2.0000001 c 4.575119,0 8.432636,3.0724204 9.621823,7.2665334 0.246338,0.8688025 -0.302889,1.9803285 -0.302889,2.9280575 -10e-7,5.522847 -3.406906,8.248685 -8.929754,8.248685 -3.534419,0 -7.0297515,-0.276907 -8.8082549,-3.044788 C 2.5803575,15.841306 2.0000001,13.988428 2.0000001,12 2.0000001,6.4771525 6.4771525,2.0000001 12,2.0000001 Z"/>
 <ellipse style="fill:#3f3f3f" cx="-14" cy="10.5" rx="1.5" ry="2.5" transform="scale(-1,1)"/>
 <path style="opacity:0.2;fill:#ffffff" d="M 12,2 C 6.4771525,2 2,6.4771525 2,12 2,12.06732 2.00649,12.133198 2.00781,12.200196 2.1667421,6.816389 6.5776965,2.5 12,2.5 c 4.575119,0 8.432884,3.0724885 9.62207,7.2666015 0.02491,0.087839 0.03684,0.180079 0.04687,0.2724615 C 21.694485,9.7689175 21.69051,9.507991 21.62207,9.2666015 20.432884,5.0724885 16.575119,2 12,2 Z"/>
 <path style="fill:#f27300" d="M 21.572482,9.134332 C 21.32207,15.078648 16.433742,19.493071 10.484158,19.5 7.9600185,19.496368 5.51234,18.911182 3.5440539,17.330946 5.37431,20.235682 8.5667325,21.998417 12,22 17.522847,22 22,17.522847 22,12 21.99735,11.029089 21.853348,10.063736 21.572482,9.134332 Z"/>
 <path style="opacity:0.2" d="M 21.572265,9.1347655 C 21.321852,15.079081 16.433959,19.493071 10.484375,19.5 7.9602355,19.49635 5.5122315,18.91129 3.5439453,17.331054 c 0.2315371,0.367465 0.4849465,0.71624 0.7578125,1.045899 6e-4,3.85e-4 0.00136,6e-4 0.00195,0.001 C 6.1253195,19.548622 8.275753,19.996821 10.484375,20 16.433959,19.99307 21.321852,15.579081 21.572265,9.6347655 21.834444,10.502331 21.972174,11.401146 21.992187,12.306641 21.99527,12.204553 22,12.102835 22,12 21.99735,11.029089 21.853131,10.064169 21.572265,9.1347655 Z"/>
 <path style="opacity:0.2" d="m 20.999999,20.5325 c -0.0017,1.4675 -0.353577,1.956847 -4.825685,1.956846 -1.271361,0 -2.818968,0.115194 -3.633734,-0.411992 -0.76933,-0.497788 -0.491851,-1.228333 -0.491852,-1.971806 0,-1.530856 1.453733,-2.605548 3.925558,-2.605548 2.471824,0 5.027558,1.5 5.025713,3.0325 z"/>
 <path style="fill:#9d7730" d="m 20.999999,20.0325 c -0.0017,1.4675 -0.353577,1.956847 -4.825685,1.956846 -1.271361,0 -2.818968,0.115194 -3.633734,-0.411992 -0.76933,-0.497788 -0.491851,-1.228333 -0.491852,-1.971806 0,-1.530856 1.453733,-2.605548 3.925558,-2.605548 2.471824,0 5.027558,1.5 5.025713,3.0325 z"/>
 <ellipse style="fill:#3f3f3f" cx="-9.5" cy="10.5" rx="1.5" ry="2.5" transform="scale(-1,1)"/>
 <path style="opacity:0.2" d="M 9.5,8.0000007 A 1.5,2.5 0 0 0 8,10.500001 1.5,2.5 0 0 0 8.00879,10.757814 1.5,2.5 0 0 1 9.5,8.5000007 1.5,2.5 0 0 1 10.991211,10.742189 1.5,2.5 0 0 0 11,10.500001 1.5,2.5 0 0 0 9.5,8.0000007 Z m 4.5,0 A 1.5,2.5 0 0 0 12.5,10.500001 1.5,2.5 0 0 0 12.5088,10.757814 1.5,2.5 0 0 1 14,8.5000007 1.5,2.5 0 0 1 15.491211,10.742189 1.5,2.5 0 0 0 15.5,10.500001 1.5,2.5 0 0 0 14,8.0000007 Z"/>
 <path style="opacity:0.2" d="m 20.511719,18.853515 a 11.111111,11.111111 0 0 1 -4.738281,3.139649 c 0.133253,-0.0016 0.271748,-0.0039 0.40039,-0.0039 4.472108,0 4.824422,-0.489532 4.826172,-1.957032 4.87e-4,-0.404597 -0.18084,-0.805649 -0.488281,-1.178711 z"/>
</svg>

<svg xmlns="http://www.w3.org/2000/svg" width="24" height="24"><path style="opacity:.2" d="M3 20.532c.002 1.468.354 1.957 4.826 1.957 1.271 0 2.819.116 3.633-.412.77-.497.492-1.228.492-1.971 0-1.531-1.453-2.606-3.925-2.606C5.554 17.5 2.998 19 3 20.532z"/><path style="fill:#9d7730" d="M3 20.032c.002 1.468.354 1.957 4.826 1.957 1.271 0 2.819.116 3.633-.412.77-.497.492-1.228.492-1.971 0-1.531-1.453-2.606-3.925-2.606C5.554 17 2.998 18.5 3 20.032z"/><path style="opacity:.2" d="M12 2.5c-5.523 0-10 4.477-10 10 0 1.988.58 3.841 1.581 5.398.111.173.23.337.354.49 0 .002.002.003.003.004A10 10 0 0 0 12 22.5a10 10 0 0 0 10-10 10 10 0 0 0-.344-2.533c-.01-.067-.016-.136-.034-.2C20.432 5.572 16.575 2.5 12 2.5z"/><path style="fill:orange" d="M12 2c4.575 0 8.433 3.072 9.622 7.267.246.868-.303 1.98-.303 2.928 0 5.522-3.407 8.248-8.93 8.248-3.534 0-7.03-.277-8.808-3.045A9.953 9.953 0 0 1 2 12C2 6.477 6.477 2 12 2z"/><ellipse style="fill:#3f3f3f" cx="-14" cy="10.5" rx="1.5" ry="2.5" transform="scale(-1 1)"/><path style="opacity:.2;fill:#fff" d="M12 2C6.477 2 2 6.477 2 12c0 .067.006.133.008.2.159-5.384 4.57-9.7 9.992-9.7 4.575 0 8.433 3.072 9.622 7.267.025.087.037.18.047.272.025-.27.022-.531-.047-.772C20.432 5.072 16.575 2 12 2z"/><path style="fill:#f27300" d="M21.572 9.134c-.25 5.945-5.138 10.36-11.088 10.366-2.524-.004-4.972-.589-6.94-2.17A10 10 0 0 0 12 22c5.523 0 10-4.477 10-10a10 10 0 0 0-.428-2.866z"/><path style="opacity:.2" d="M21.572 9.135c-.25 5.944-5.138 10.358-11.088 10.365-2.524-.004-4.972-.589-6.94-2.169.231.368.485.716.758 1.046l.002.001c1.821 1.17 3.972 1.619 6.18 1.622 5.95-.007 10.838-4.42 11.088-10.365.262.867.4 1.766.42 2.672.003-.102.008-.204.008-.307a9.998 9.998 0 0 0-.428-2.865z"/><path style="opacity:.2" d="M21 20.532c-.002 1.468-.354 1.957-4.826 1.957-1.271 0-2.819.116-3.633-.412-.77-.497-.492-1.228-.492-1.971 0-1.531 1.453-2.606 3.925-2.606 2.472 0 5.028 1.5 5.026 3.032z"/><path style="fill:#9d7730" d="M21 20.032c-.002 1.468-.354 1.957-4.826 1.957-1.271 0-2.819.116-3.633-.412-.77-.497-.492-1.228-.492-1.971 0-1.531 1.453-2.606 3.925-2.606 2.472 0 5.028 1.5 5.026 3.032z"/><ellipse style="fill:#3f3f3f" cx="-9.5" cy="10.5" rx="1.5" ry="2.5" transform="scale(-1 1)"/><path style="opacity:.2" d="M9.5 8A1.5 2.5 0 0 0 8 10.5a1.5 2.5 0 0 0 .009.258A1.5 2.5 0 0 1 9.5 8.5a1.5 2.5 0 0 1 1.491 2.242A1.5 2.5 0 0 0 11 10.5 1.5 2.5 0 0 0 9.5 8zM14 8a1.5 2.5 0 0 0-1.5 2.5 1.5 2.5 0 0 0 .009.258A1.5 2.5 0 0 1 14 8.5a1.5 2.5 0 0 1 1.491 2.242 1.5 2.5 0 0 0 .009-.242A1.5 2.5 0 0 0 14 8zM20.512 18.854a11.111 11.111 0 0 1-4.739 3.14c.134-.002.272-.005.4-.005 4.473 0 4.825-.49 4.827-1.957 0-.404-.18-.805-.488-1.178z"/></svg>
